icons/desktop/16/filter-16.svg

<svg width="16" height="16" viewBox="0 0 16 16" fill="none" xmlns="http://www.w3.org/2000/svg">
<path d="M12.8441 2.125C11.3471 2.045 9.78212 2 8.15612 2C8.10912 2 8.06312 2 8.01612 2C6.32612 2.003 4.70212 2.054 3.15012 2.142C1.21012 2.253 0.290115 4.578 1.64012 5.975L5.36312 9.826V12.468C5.36312 12.856 5.53712 13.223 5.84512 13.459C6.36712 13.857 7.05612 14.303 8.00012 14.64C8.40812 14.786 8.78411 14.892 9.13111 14.97C9.22111 14.99 9.31112 15 9.39912 15C10.0691 15 10.6411 14.442 10.6411 13.737V9.761L14.3511 5.969C15.7161 4.573 14.7941 2.229 12.8441 2.125ZM13.2781 4.919L9.56812 8.711C9.29412 8.991 9.14012 9.368 9.14012 9.76V13.427C8.93112 13.371 8.71812 13.304 8.50412 13.227C7.75612 12.959 7.22012 12.611 6.86212 12.347V9.826C6.86212 9.437 6.71112 9.063 6.44012 8.783L2.71712 4.932C2.41112 4.615 2.50112 4.265 2.55412 4.129C2.60812 3.99 2.78312 3.665 3.23412 3.639C4.81812 3.549 6.42712 3.502 8.01612 3.499H8.15412C9.68412 3.499 11.2341 3.54 12.7611 3.622C13.2131 3.646 13.3881 3.973 13.4421 4.112C13.4951 4.249 13.5861 4.601 13.2751 4.918L13.2781 4.919Z" fill="black"/>
</svg>

<!-- This Source Code Form is subject to the terms of the Mozilla Public
   - License, v. 2.0. If a copy of the MPL was not distributed with this
   - file, You can obtain one at http://mozilla.org/MPL/2.0/. -->
<svg xmlns="http://www.w3.org/2000/svg" width="16" height="16" fill="context-fill" fill-opacity="context-fill-opacity" viewBox="0 0 16 16">
    <path d="M12.844 2.125A88 88 0 0 0 8.156 2h-.14c-1.69.003-3.314.054-4.866.142-1.94.111-2.86 2.436-1.51 3.833l3.723 3.851v2.642c0 .388.174.755.482.991A7.8 7.8 0 0 0 8 14.64c.408.146.784.252 1.131.33q.136.03.268.03c.67 0 1.242-.558 1.242-1.263V9.761l3.71-3.792c1.365-1.396.443-3.74-1.507-3.844m.434 2.794-3.71 3.792A1.5 1.5 0 0 0 9.14 9.76v3.667a8 8 0 0 1-.636-.2 6.3 6.3 0 0 1-1.642-.88V9.826a1.5 1.5 0 0 0-.422-1.043L2.717 4.932a.74.74 0 0 1-.163-.803.75.75 0 0 1 .68-.49 88 88 0 0 1 4.782-.14h.138c1.53 0 3.08.041 4.607.123a.75.75 0 0 1 .681.49.735.735 0 0 1-.167.806z" />
</svg>
